packages/components/icon/src/assets/icons/cancel.svg

<svg xmlns="http://www.w3.org/2000/svg" fill="none" viewBox="0 0 24 24"><path fill="currentColor" fill-rule="evenodd" d="M12.0899 3c1.6487 0 3.1673.40857 4.5558 1.22572 1.3884.81716 2.4912 1.91993 3.3083 3.30837.8172 1.38844 1.2258 2.90701 1.2258 4.55581 0 1.6487-.405 3.1709-1.2149 4.5666-.8099 1.3957-1.9127 2.4985-3.3084 3.3084-1.3957.8099-2.9179 1.2149-4.5666 1.2149-1.6488 0-3.16737-.4086-4.55581-1.2258-1.38844-.8171-2.49121-1.9199-3.30837-3.3083C3.40857 15.2572 3 13.7386 3 12.0899c0-1.6488.40857-3.16737 1.22572-4.55581.81716-1.38844 1.91993-2.49121 3.30837-3.30837C8.92253 3.40857 10.4411 3 12.0899 3zm6.8337 9.0899c0-1.2294-.3074-2.36469-.9221-3.40602-.6146-1.04132-1.4426-1.86931-2.4839-2.48398-1.0414-.61468-2.1839-.92201-3.4277-.92201-1.4463 0-2.76241.41942-3.94837 1.25827l9.50207 9.50204c.8533-1.1715 1.28-2.4876 1.28-3.9483zm-13.64571 0c0 1.2293.30733 2.3646.92201 3.406.61467 1.0413 1.44266 1.8693 2.48398 2.484 1.04133.6146 2.17662.922 3.40602.922.7376 0 1.4426-.1085 2.1152-.3255.6725-.2169 1.2908-.5278 1.8548-.9328L6.55785 8.11983c-.85331 1.20042-1.27996 2.52377-1.27996 3.97007z" clip-rule="evenodd"/></svg>

<svg width="24" height="24" viewBox="0 0 24 24" fill="none" xmlns="http://www.w3.org/2000/svg">
<path fill-rule="evenodd" clip-rule="evenodd" d="M12.0899 3C13.7386 3 15.2572 3.40857 16.6457 4.22572C18.0341 5.04288 19.1369 6.14565 19.954 7.53409C20.7712 8.92253 21.1798 10.4411 21.1798 12.0899C21.1798 13.7386 20.7748 15.2608 19.9649 16.6565C19.155 18.0522 18.0522 19.155 16.6565 19.9649C15.2608 20.7748 13.7386 21.1798 12.0899 21.1798C10.4411 21.1798 8.92253 20.7712 7.53409 19.954C6.14565 19.1369 5.04288 18.0341 4.22572 16.6457C3.40857 15.2572 3 13.7386 3 12.0899C3 10.4411 3.40857 8.92253 4.22572 7.53409C5.04288 6.14565 6.14565 5.04288 7.53409 4.22572C8.92253 3.40857 10.4411 3 12.0899 3ZM18.9236 12.0899C18.9236 10.8605 18.6162 9.72521 18.0015 8.68388C17.3869 7.64256 16.5589 6.81457 15.5176 6.1999C14.4762 5.58522 13.3337 5.27789 12.0899 5.27789C10.6436 5.27789 9.32749 5.69731 8.14153 6.53616L17.6436 16.0382C18.4969 14.8667 18.9236 13.5506 18.9236 12.0899ZM5.27789 12.0899C5.27789 13.3192 5.58522 14.4545 6.1999 15.4959C6.81457 16.5372 7.64256 17.3652 8.68388 17.9799C9.72521 18.5945 10.8605 18.9019 12.0899 18.9019C12.8275 18.9019 13.5325 18.7934 14.2051 18.5764C14.8776 18.3595 15.4959 18.0486 16.0599 17.6436L6.55785 8.11983C5.70454 9.32025 5.27789 10.6436 5.27789 12.0899Z" fill="currentColor"/>
</svg>
